X: 13
T: Lad O'Beirne's
C: Lad O'Beirne
Z: JREvans51
S: https://thesession.org/tunes/406#setting47449
R: reel
M: 4/4
L: 1/8
K: Gmaj
|:DGGG DGBG|AdBA AGEd|DGGG DG Bd|edgd edge|
dBBB gBBB|cEEE GEDB,|DEGA BBeB|1 dBAd BGGG:|2 dBAd BGge||
|:ddde dGBd|gGgd eege|dBBB gBBB|cEEE GEDd|
BddB ddef|ggfa gedB|DEGA BBeB|dBAd BG G2:|

